ui/src/assets/icons/lock.svg

<?xml version="1.0" encoding="UTF-8"?>
<svg width="13px" height="17px" viewBox="0 0 13 17" version="1.1" xmlns="http://www.w3.org/2000/svg" xmlns:xlink="http://www.w3.org/1999/xlink">
    <!-- Generator: Sketch 48.2 (47327) - http://www.bohemiancoding.com/sketch -->
    <title>Lock</title>
    <desc>Created with Sketch.</desc>
    <defs></defs>
    <g id="Brand-styles" stroke="none" stroke-width="1" fill="none" fill-rule="evenodd" transform="translate(-924.000000, -3357.000000)">
        <g id="Lock" transform="translate(924.000000, 3357.000000)" fill="#302C71" fill-rule="nonzero">
            <path d="M11.375,4.85714286 L10.8333333,4.85714286 C10.8333333,2.17461693 8.89323392,0 6.5,0 C4.10676608,0 2.16666667,2.17461693 2.16666667,4.85714286 L1.625,4.85714286 C0.727537282,4.85714286 0,5.67262421 0,6.67857143 L0,15.1785714 C0,16.1845187 0.727537282,17 1.625,17 L11.375,17 C12.2724627,17 13,16.1845187 13,15.1785714 L13,6.67857143 C13,5.67262421 12.2724627,4.85714286 11.375,4.85714286 Z M6.5,1.21428571 C8.29492544,1.21428571 9.75,2.84524841 9.75,4.85714286 L3.25,4.85714286 C3.25,2.84524841 4.70507456,1.21428571 6.5,1.21428571 Z M11.9166667,15.1785714 C11.9166667,15.5138872 11.6741542,15.7857143 11.375,15.7857143 L1.625,15.7857143 C1.32584576,15.7857143 1.08333333,15.5138872 1.08333333,15.1785714 L1.08333333,6.67857143 C1.08333333,6.34325569 1.32584576,6.07142857 1.625,6.07142857 L11.375,6.07142857 C11.6741542,6.07142857 11.9166667,6.34325569 11.9166667,6.67857143 L11.9166667,15.1785714 Z" id="Shape"></path>
            <path d="M7.27063981,9.31 L7.27063981,7 L5.72936019,7 L5.72936019,9.31 C5.27588964,9.56527499 5,10.0154074 5,10.5 C5,10.9845926 5.27588964,11.434725 5.72936019,11.69 L5.72936019,14 L7.27063981,14 L7.27063981,11.69 C7.72411036,11.434725 8,10.9845926 8,10.5 C8,10.0154074 7.72411036,9.56527499 7.27063981,9.31 Z" id="Shape"></path>
        </g>
    </g>
</svg>

<svg xmlns="http://www.w3.org/2000/svg" viewBox="0 0 13 17">
    <g fill="#302C71" fill-rule="nonzero">
        <path d="M11.38 4.86h-.55C10.83 2.17 8.9 0 6.5 0 4.1 0 2.17 2.17 2.17 4.86h-.54C.72 4.86 0 5.67 0 6.68v8.5C0 16.18.73 17 1.63 17h9.75c.9 0 1.62-.82 1.62-1.82v-8.5c0-1-.73-1.82-1.63-1.82zM6.5 1.2c1.8 0 3.25 1.64 3.25 3.65h-6.5c0-2.01 1.46-3.65 3.25-3.65zm5.42 13.97c0 .33-.25.6-.54.6H1.62c-.3 0-.54-.27-.54-.6v-8.5c0-.34.25-.6.54-.6h9.75c.3 0 .55.26.55.6v8.5z"/>
        <path d="M7.27 9.31V7H5.73v2.31c-.45.26-.73.7-.73 1.19 0 .48.28.93.73 1.19V14h1.54v-2.31c.45-.26.73-.7.73-1.19 0-.48-.28-.93-.73-1.19z"/>
    </g>
</svg>
